X:1
T:The Moldau
T:The Moldau
T:má vlast
T:Bedřich Smetana
C:Bedřich Smetana
%%score { 1 | 2 }
L:1/8
Q:1/4=92
M:6/8
K:G
V:1 bass nm="Piano" snm="Pno."
V:2 bass 
V:1
"^Andante"!p! E,/F,/G,/F,/G,/A,/ G,/A,/B,/A,/B,/C/ | B,/C/D/C/B,/C/ B,/A,/B,/A,/G,/A,/ | %2
 G,/F,/E,/F,/G,/F,/ G,/A,/G,/A,/B,/A,/ |!>(! B,/C/D/C/B,/A,/ B,2[K:treble] B!>)! | %4
"_cresc." [Ge]2 f [Bg]2 a | [gb]3 [gb]3 |!f! [ec']3 [ec']2 c' | [db]3 [db]db | %8
!>(! [cefa]3 [cefa]2 [cefa]!>)! | [Beg]3 [Beg]2 [Beg] | [A^df]3 [Adf]3 |!mp! [GBe]4- [GBe]B | %12
"_cresc." eGf [Bg]2 [ca] | [eb]3 [eb]3 |!f! [ec']3 [ec']2 [ec'] |!>(! [db]3 Bdb!>)! | %16
!>(! [ca]3 [cef]2 a!>)! | [Beg]>a-a [Bg]>[Bg]-[Bg] | [Acef]3 [A^df]3 |!mp! [Ge]4- [Ge]G | %20
!<(! [Ec]>d-d [Gce]2 f!<)! | [dg]2 a [gb]2 c' |!>(! [fd']3 adc'!>)! | [gb]3 B/d/b/g/d/B/ | %24
 [Ec]2!<(! d [ce]>f-f!<)! | [Bg]>a-a b>c'-c' | [^db]3!>(! f2 a!>)! | [Bg]3 GBg | [^Ag]3 e2 g | %29
 [B^db]3 f2 f | [^Ag]3 e2 g | [B^db]3 f2 f | [Bb]3 f2 f |!>(! (Bfb) (Aef)!>)! | (GBe) (Fe^d) | %35
"_cresc." e/G/B/f/G/B/ g/B/e/a/B/e/ | b/B/e/g/e/B/ b/B/e/g/e/B/ |!f! c'/c/e/g/c/e/ c'/c/e/g/c'/c/ | %38
 b/B/d/b/g/d/ B/g/d/B/G/B/ | A/c/e/c/a/c/ a/c/a/A/b/A/ | g/G/B/e/G/B/ g/G/B/g/G/B/ | %41
 f/A/B/f/A/B/ e/F/B/^d/F/B/ | e/E/G/e/B/G/ E/G/BB |"_cresc." e/G/B/f/G/B/ g/B/e/a/B/e/ | %44
 b/B/e/g/e/B/ b/B/e/g/e/B/ |!f! c'/c/e/g/c/e/ c'/c/e/g/c'/c/ | b/B/d/b/g/d/ B/g/d/B/G/B/ | %47
 A/c/e/c/a/c/ a/c/a/A/b/A/ | g/G/B/e/G/B/ g/G/B/g/G/B/ | f/A/B/f/A/B/ e/F/B/^d/F/B/ | e3 G2 G | %51
 ([Ec]2 d e2 f) | ([Gdg]2 a b2 c') | [fd']3 a2 c' | b3 [Bg]3 | ([CEA]2 B c2 d) | %56
 [GBe]>[Af]-[Af] [Bg]>[ca]-[ca] | [B^db]3 f2 a | [Bg]3 GBg | [^Ag]3 e2 g | [B^db]3 f2 f | %61
 [^Ag]3 e2 g | [B^db]3 f2 f | [Bb]3 f2 f |!>(! (Bfb) (Aef)!>)! | (GBe) (Fe^d) | %66
"_cresc." e/G/B/f/G/B/ g/B/e/a/B/e/ | b/B/e/g/e/B/ b/B/e/g/e/B/ |!f! c'/c/e/g/c/e/ c'/c/e/g/c'/c/ | %69
 b/B/d/b/g/d/ B/g/d/B/G/B/ | A/c/e/c/a/c/ a/c/a/A/b/A/ | g/G/B/e/G/B/ g/G/B/g/G/B/ | %72
 f/A/B/f/A/B/ e/F/B/^d/F/B/ | e3 G2 G | ([Ec]2 d e2 f) | ([Gdg]2 a b2 c') | [fd']3 a2 c' | %77
 b3 [Bg]3 | ([CEA]2 B c2 d) | [GBe]>[Af]-[Af] [Bg]>[ca]-[ca] | [B^db]3 f2 a | [Bg]3 GBg | %82
 [^Ag]3 e2 g | [B^db]3 f2 f | [^Ag]3 e2 g | [B^db]3 f2 f | [Bb]3 f2 f | Beb eBe | ^dBd b2 d | %89
 [^Ge]2 f [B^g]>a-a | [^gb]3 [gb]3 | [ac']3 [ac']2 [ac'] | [gb]3- [gb]Bb | [ca]3 [ca]ba | %94
 [Bg]3 [Bg]ag | [cef]cf [A^df]gf | [GBe]3 G2 G | ([Ec]2 d e2 f) | ([Gdg]2 a b2 c') | [fd']3 a2 c' | %100
 b3 [Bg]3 | ([CEA]2 B c2 d) | [GBe]>[Af]-[Af] [Bg]>[ca]-[ca] | [B^db]3 f2 a | [Bg]3 GBg | %105
 [^Ag]3 e2 g | [B^db]3 f2 f | [^Ag]3 e2 g | [B^db]3 f2 f | [Bb]3 f2 f | Beb eBe | ^dBd b2 d | %112
!p! E,/F,/G,/F,/G,/A,/ G,/A,/B,/A,/B,/C/ | B,/C/D/C/B,/C/ B,/A,/B,/A,/G,/A,/ | %114
 G,/F,/E,/F,/G,/F,/ G,/A,/G,/A,/B,/A,/ |!>(! B,/C/D/C/B,/A,/ B,2[K:treble] B!>)! |: %116
"_cresc." [Ge]2 f [Bg]2 a | [gb]3 [gb]3 |!f! [ec']3 [ec']2 c' | [db]3 [db]db | %120
!>(! [cefa]3 [cefa]2 [cefa]!>)! | [Beg]3 [Beg]2 [Beg] | [A^df]3 [Adf]3 |!mp! [GBe]4- [GBe]B :| %124
"_cresc." e/G/B/f/G/B/ g/B/e/a/B/e/ | b/B/e/g/e/B/ b/B/e/g/e/B/ |!f! c'/c/e/g/c/e/ c'/c/e/g/c'/c/ | %127
 b/B/d/b/g/d/ B/g/d/B/G/B/ | A/c/e/c/a/c/ a/c/a/A/b/A/ | g/G/B/e/G/B/ g/G/B/g/G/B/ | %130
 f/A/B/f/A/B/ e/F/B/^d/F/B/ |!p! E,/F,/G,/F,/G,/A,/ G,/A,/B,/A,/B,/C/ | %132
 B,/C/D/C/B,/C/ B,/A,/B,/A,/G,/A,/ | !fermata![B,EG]6 |] %134
V:2
 [E,,E,]3 [B,,B,]2 [B,,B,] | [E,,E,]3 [B,,B,]3 | [E,,E,]3 [B,,B,]2 [B,,B,] | %3
 [E,,E,]3 !fermata![B,,B,]3 |!ped! (E,B,E FEB,)!ped-up! |!ped! (E,G,B, E,G,B,)!ped-up! | %6
!ped! (C,G,C ECG,)!ped-up! |!ped! (G,,D,G, B,3)!ped-up! |!ped! (A,,E,F, A,F,E,)!ped-up! | %9
!ped! (B,,G,B,- B,G,B,)!ped-up! |!ped! (B,,F,B, F,B,,F,)!ped-up! |!ped! (E,,B,,E, E, B,2)!ped-up! | %12
!ped! (E,B,E FEB,)!ped-up! |!ped! (E,B,E FEB,)!ped-up! |!ped! (C,G,E G,C,G,)!ped-up! | %15
!ped! (G,,D,B, D3)!ped-up! |!ped! (A,,E,F, A,F,A,)!ped-up! |!ped! (B,,E,G, B,G,E,)!ped-up! | %18
!ped! (A,,C,F, B,,^D,F,)!ped-up! |!ped! (E,,B,,E, G,3)!ped-up! |!ped! (C,G,C ECG,)!ped-up! | %21
!ped! (B,,G,B, DB,G,)!ped-up! |!ped! (A,,F,A, D A,2)!ped-up! |!ped! (G,,D,B,- B,2 B,)!ped-up! | %24
!ped! (A,,E,A, CA,E,)!ped-up! |!ped! (E,B,E FEB,)!ped-up! |!ped! (B,,F,B, ^DB,F,)!ped-up! | %27
!ped! (E,B,E- E2 B,)!ped-up! |!ped! (^A,,E,G, ^A,G,E,)!ped-up! |!ped! (B,,F,B, ^D B,2)!ped-up! | %30
!ped! (^A,,E,G, ^A,G,E,)!ped-up! |!ped! (B,,F,B, F,B,F,)!ped-up! |!ped! (B,,F,B, F, B,2)!ped-up! | %33
!ped! [B,F]3 A,3!ped-up! |!ped! G,3 F,3!ped-up! |!ped! ([E,,,E,,]B,,E, F,G,E,)!ped-up! | %36
!ped! ([E,,,E,,]B,,E, F,G,B,)!ped-up! |!ped! ([C,,C,]G,C ECG,)!ped-up! | %38
!ped! ([G,,,G,,]D,G, B,G,D,)!ped-up! |!ped! ([A,,,A,,]E,A, CA,E,)!ped-up! | %40
!ped! ([B,,,B,,]G,B, EB,G,)!ped-up! |!ped! ([B,,,B,,]F,B, EB,F,)!ped-up! | %42
!ped! ([E,,,E,,]B,,E, G,B,G,)!ped-up! |!ped! ([E,,,E,,]B,,E, F,G,E,)!ped-up! | %44
!ped! ([E,,,E,,]B,,E, F,G,B,)!ped-up! |!ped! ([C,,C,]G,C ECG,)!ped-up! | %46
!ped! ([G,,,G,,]D,G, B,G,D,)!ped-up! |!ped! ([A,,,A,,]E,A, CA,E,)!ped-up! | %48
!ped! ([B,,,B,,]G,B, EB,G,)!ped-up! |!ped! (B,,3 F,3)!ped-up! |!ped! (E,B,E B,E,B,)!ped-up! | %51
!ped! [C,G,]3 C3!ped-up! |!ped! B,6!ped-up! |!ped! (A,DF z FD)!ped-up! |!ped! (G,DG-) G3!ped-up! | %55
!ped! (A,,E,A, E,A,E,)!ped-up! |!ped! (E,,B,,G, B,,G,B,,)!ped-up! |!ped! (B,,F,B, ^DB,F,)!ped-up! | %58
!ped! (E,B,E-) E3!ped-up! |!ped! (^A,,E,G, ^A,G,E,)!ped-up! |!ped! (B,,F,B, ^D B,2)!ped-up! | %61
!ped! (^A,,E,G, ^A,G,E,)!ped-up! |!ped! (B,,F,B, F,B,F,)!ped-up! |!ped! (B,,F,B, F, B,2)!ped-up! | %64
!ped! [B,F]3 A,3!ped-up! |!ped! G,3 F,3!ped-up! |!ped! ([E,,,E,,]B,,E, F,G,E,)!ped-up! | %67
!ped! ([E,,,E,,]B,,E, F,G,B,)!ped-up! |!ped! ([C,,C,]G,C ECG,)!ped-up! | %69
!ped! ([G,,,G,,]D,G, B,G,D,)!ped-up! |!ped! ([A,,,A,,]E,A, CA,E,)!ped-up! | %71
!ped! ([B,,,B,,]G,B, EB,G,)!ped-up! |!ped! (B,,3 F,3)!ped-up! |!ped! (E,B,E B,E,B,)!ped-up! | %74
!ped! [C,G,]3 C3!ped-up! |!ped! B,6!ped-up! |!ped! (A,DF z FD)!ped-up! |!ped! (G,DG-) G3!ped-up! | %78
!ped! (A,,E,A, E,A,E,)!ped-up! |!ped! (E,,B,,G, B,,G,B,,)!ped-up! |!ped! (B,,F,B, ^DB,F,)!ped-up! | %81
!ped! (E,B,E-) E3!ped-up! |!ped! (^A,,E,G, ^A,G,E,)!ped-up! |!ped! (B,,F,B, ^D B,2)!ped-up! | %84
!ped! (^A,,E,G, ^A,G,E,)!ped-up! |!ped! (B,,F,B, F,B,F,)!ped-up! |!ped! (A,^DF- F F2)!ped-up! | %87
!ped! (G,EG EG,E)!ped-up! |!ped! (F,B,^D- D3)!ped-up! |!ped! (E,^G,B, EB,G,)!ped-up! | %90
!ped! (E,^G,B, EB,G,)!ped-up! |!ped! (A,,E,F, A, C2)!ped-up! |!ped! (G,,D,G, B,3)!ped-up! | %93
!ped! (=F,A,C =F3)!ped-up! |!ped! (E,G,B, E3)!ped-up! |!ped! [F,A,CE]3 [B,^D]3!ped-up! | %96
!ped! (E,B,E- E B,2)!ped-up! |!ped! [C,G,]3 C3!ped-up! |!ped! B,6!ped-up! | %99
!ped! (A,DF z FD)!ped-up! |!ped! (G,DG-) G3!ped-up! |!ped! (A,,E,A, E,A,E,)!ped-up! | %102
!ped! (E,,B,,G, B,,G,B,,)!ped-up! |!ped! (B,,F,B, ^DB,F,)!ped-up! |!ped! (E,B,E-) E3!ped-up! | %105
!ped! (^A,,E,G, ^A,G,E,)!ped-up! |!ped! (B,,F,B, ^D B,2)!ped-up! | %107
!ped! (^A,,E,G, ^A,G,E,)!ped-up! |!ped! (B,,F,B, ^D B,2)!ped-up! |!ped! (A,^DF- F F2)!ped-up! | %110
!ped! (G,EG EG,E)!ped-up! |!ped! (F,B,^D- D3)!ped-up! | [E,,E,]3 [B,,B,]2 [B,,B,] | %113
 [E,,E,]3 [B,,B,]3 | [E,,E,]3 [B,,B,]2 [B,,B,] | [E,,E,]3 !fermata![B,,B,]3 |: %116
!ped! (E,B,E FEB,)!ped-up! |!ped! (E,G,B, E,G,B,)!ped-up! |!ped! (C,G,C ECG,)!ped-up! | %119
!ped! (G,,D,G, B,3)!ped-up! |!ped! (A,,E,F, A,F,E,)!ped-up! |!ped! (B,,G,B,- B,G,B,)!ped-up! | %122
!ped! (B,,F,B, F,B,,F,)!ped-up! |!ped! (E,,B,,E, E, B,2)!ped-up! :| %124
!ped! ([E,,,E,,]B,,E, F,G,E,)!ped-up! |!ped! ([E,,,E,,]B,,E, F,G,B,)!ped-up! | %126
!ped! ([C,,C,]G,C ECG,)!ped-up! |!ped! ([G,,,G,,]D,G, B,G,D,)!ped-up! | %128
!ped! ([A,,,A,,]E,A, CA,E,)!ped-up! |!ped! ([B,,,B,,]G,B, EB,G,)!ped-up! | %130
!ped! (B,,3 F,3)!ped-up! | [E,,E,]3 [B,,B,]2 [B,,B,] | [E,,E,]3 [B,,B,]3 | !fermata![E,,E,]6 |] %134

